X:0663
T:"Planxty Kitty O'Brien"         0663
C:Turlough  O' Carolan
C:moderate
Q:1/4=90
B:O'Neill's Music Of Ireland (The 1850) Lyon & Healy, Chicago, 1903 edition
N:(Possibly #111 in O'Sullivan's Collection ):  http://www.sosyourmom.com/occ/tunes.html
Z:FROM O'NEILL'S TO NOTEWORTHY, FROM NOTEWORTHY TO ABC, MIDI AND .TXT BY VINCE BRENNAN 6-21-03 (HTTP://WWW.SOSYOURMOM.COM)
I:abc2nwc
M:C
L:1/8
K:G
"^vb"B2d2d2g2|e2dc B2A2|G2G2A2G2|F3E D2z2|
BB d2d2g2|fefg a2e2|(edcB) {d}(cBAG)|G4G2z2||
D2DD D2GG|E2EE E2EG|ABAG {B}AGAB|d4d2z2|
efed B2d2|efed cBAG|g2G2GABG|A4G2z2||
B2d2d2ef|g4[B4g4]|efed B2d2|e2f2g2z2|
d2BA G2d2|G2AB d2D2|E2FG ABAG|G4G2z2|]
